svg/emoji_u1fa82.svg

<?xml version="1.0" encoding="UTF-8" standalone="no"?>
<!-- Generator: Adobe Illustrator 25.2.3, SVG Export Plug-In . SVG Version: 6.00 Build 0)  -->

<svg
   version="1.1"
   id="Layer_1"
   x="0px"
   y="0px"
   viewBox="0 0 128 128"
   style="enable-background:new 0 0 128 128;"
   xml:space="preserve"
   sodipodi:docname="emoji_u1fa82.svg"
   inkscape:version="1.2.2 (732a01da63, 2022-12-09)"
   xmlns:inkscape="http://www.inkscape.org/namespaces/inkscape"
   xmlns:sodipodi="http://sodipodi.sourceforge.net/DTD/sodipodi-0.dtd"
   xmlns="http://www.w3.org/2000/svg"
   xmlns:svg="http://www.w3.org/2000/svg"><defs
   id="defs2617" /><sodipodi:namedview
   id="namedview2615"
   pagecolor="#ffffff"
   bordercolor="#000000"
   borderopacity="0.25"
   inkscape:showpageshadow="2"
   inkscape:pageopacity="0.0"
   inkscape:pagecheckerboard="0"
   inkscape:deskcolor="#d1d1d1"
   showgrid="false"
   inkscape:zoom="2.9996795"
   inkscape:cx="25.502724"
   inkscape:cy="53.339031"
   inkscape:window-width="1366"
   inkscape:window-height="697"
   inkscape:window-x="-8"
   inkscape:window-y="-8"
   inkscape:window-maximized="1"
   inkscape:current-layer="Layer_1" />

<g
   id="g58042"
   transform="translate(0,-0.0408554)"><path
     style="fill:none;fill-opacity:1;stroke:#6593a2;stroke-width:3;stroke-linecap:round;stroke-dasharray:none;stroke-opacity:1"
     d="m 51.710715,47.338391 c 0,0 10.08142,73.017009 12.289285,73.017009 2.207866,0 12.289285,-73.017009 12.289285,-73.017009"
     id="path13154"
     sodipodi:nodetypes="czc" /><path
     style="fill:none;fill-opacity:1;stroke:#6593a2;stroke-width:3;stroke-linecap:round;stroke-dasharray:none;stroke-opacity:1"
     d="m 28.137861,47.338391 c 0,0 29.419227,73.017009 35.862136,73.017009 6.442913,0 35.862144,-73.017009 35.862144,-73.017009"
     id="path13152"
     sodipodi:nodetypes="czc" /><path
     style="fill:none;fill-opacity:1;stroke:#6593a2;stroke-width:3;stroke-linecap:round;stroke-dasharray:none;stroke-opacity:1"
     d="m 10.935284,57.536688 c 0,0 43.531228,62.818712 53.064717,62.818712 9.533489,0 53.064719,-62.818712 53.064719,-62.818712"
     id="path13150"
     sodipodi:nodetypes="czc" /><path
     d="m 64,6.2263108 c -49.703489,0 -59.4510989,44.3680072 -59.4510989,51.3942172 0,7.036361 23.4709039,-2.754634 59.4510989,-2.754634 35.980194,0 59.4511,9.790995 59.4511,2.754634 0,-7.02621 -9.7476,-51.3942172 -59.4511,-51.3942172 z"
     style="fill:#feb300;fill-opacity:1;stroke-width:0.999993"
     id="path28498"
     sodipodi:nodetypes="zszsz" /><path
     id="rect14667"
     style="fill:#feca27;fill-opacity:1;stroke:none;stroke-width:6;stroke-linecap:round;stroke-dasharray:none;stroke-opacity:1"
     d="m 64,6.2265625 c -2.363605,0 -4.60878,0.1303853 -6.794922,0.3222656 -0.780377,5.1971379 -2.164062,16.1905959 -2.164062,29.1640629 0,7.301351 0.44411,13.935281 0.96875,19.328125 2.596163,-0.102287 5.243376,-0.175782 7.990234,-0.175782 2.876801,0 5.642257,0.08178 8.353516,0.19336 0.320076,-5.796369 0.605468,-12.724792 0.605468,-19.345703 0,-11.196475 -0.805411,-23.387628 -1.232422,-29.0839848 C 69.258497,6.380362 66.698838,6.2265625 64,6.2265625 Z M 36.3125,11.984375 c -5.674541,2.683257 -10.379549,6.120146 -14.279297,9.912109 -0.738727,4.066909 -1.289062,8.770543 -1.289062,13.816407 0,9.40949 1.898201,17.616024 3.398437,22.666015 3.586864,-0.545581 7.466124,-1.121606 11.898438,-1.671875 -0.533135,-5.532705 -1.152344,-13.384932 -1.152344,-20.99414 0,-8.979385 0.866753,-18.455179 1.423828,-23.728516 z m 55.376953,0 c 0.557076,5.273367 1.421875,14.749202 1.421875,23.728516 0,7.609208 -0.619209,15.461435 -1.152344,20.99414 4.432314,0.550269 8.311576,1.126294 11.898436,1.671875 1.50024,-5.049991 3.39844,-13.256525 3.39844,-22.666015 0,-5.045864 -0.55034,-9.749498 -1.28906,-13.816407 -3.89938,-3.791607 -8.603518,-7.228962 -14.277347,-9.912109 z" /></g></svg>

<?xml version="1.0" encoding="UTF-8" standalone="no"?>
<!-- Generator: Adobe Illustrator 25.2.3, SVG Export Plug-In . SVG Version: 6.00 Build 0)  -->

<svg
   version="1.1"
   id="Layer_1"
   x="0px"
   y="0px"
   viewBox="0 0 128 128"
   style="enable-background:new 0 0 128 128;"
   xml:space="preserve"
   sodipodi:docname="emoji_u1fa82.svg"
   inkscape:version="1.2.2 (732a01da63, 2022-12-09)"
   xmlns:inkscape="http://www.inkscape.org/namespaces/inkscape"
   xmlns:sodipodi="http://sodipodi.sourceforge.net/DTD/sodipodi-0.dtd"
   xmlns="http://www.w3.org/2000/svg"
   xmlns:svg="http://www.w3.org/2000/svg"><defs
   id="defs2617" /><sodipodi:namedview
   id="namedview2615"
   pagecolor="#ffffff"
   bordercolor="#000000"
   borderopacity="0.25"
   inkscape:showpageshadow="2"
   inkscape:pageopacity="0.0"
   inkscape:pagecheckerboard="0"
   inkscape:deskcolor="#d1d1d1"
   showgrid="false"
   inkscape:zoom="2.9996795"
   inkscape:cx="50.33871"
   inkscape:cy="68.007264"
   inkscape:window-width="1366"
   inkscape:window-height="697"
   inkscape:window-x="-8"
   inkscape:window-y="-8"
   inkscape:window-maximized="1"
   inkscape:current-layer="Layer_1" />
<path
   style="fill:none;fill-opacity:1;stroke:#6593a2;stroke-width:3;stroke-linecap:round;stroke-dasharray:none;stroke-opacity:1"
   d="m 51.170279,47.33839 c 0,0 10.524762,71.34095 12.829721,71.34095 2.304959,0 12.82972,-71.34095 12.82972,-71.34095"
   id="path13154"
   sodipodi:nodetypes="czc" /><path
   style="fill:none;fill-opacity:1;stroke:#6593a2;stroke-width:3;stroke-linecap:round;stroke-dasharray:none;stroke-opacity:1"
   d="m 26.560782,47.33839 c 0,0 30.712971,71.34095 37.439215,71.34095 6.726247,0 37.439223,-71.34095 37.439223,-71.34095"
   id="path13152"
   sodipodi:nodetypes="czc" /><path
   style="fill:none;fill-opacity:1;stroke:#6593a2;stroke-width:3;stroke-linecap:round;stroke-dasharray:none;stroke-opacity:1"
   d="m 8.6017016,54.95932 c 0,0 45.4455664,63.72002 55.3982994,63.72002 9.952736,0 55.398299,-63.72002 55.398299,-63.72002"
   id="path13150"
   sodipodi:nodetypes="czc" /><path
   d="m 64,6.2263108 c -49.703489,0 -59.4510989,44.3680072 -59.4510989,51.3942172 0,7.036361 23.4709039,-2.754634 59.4510989,-2.754634 35.980194,0 59.4511,9.790995 59.4511,2.754634 0,-7.02621 -9.7476,-51.3942172 -59.4511,-51.3942172 z"
   style="fill:#feb300;fill-opacity:1;stroke-width:0.999993"
   id="path28498"
   sodipodi:nodetypes="zszsz" />
<path
   id="rect14667"
   style="fill:#feca27;fill-opacity:1;stroke:none;stroke-width:6;stroke-linecap:round;stroke-dasharray:none;stroke-opacity:1"
   d="M 64 6.2265625 C 61.636395 6.2265625 59.39122 6.3569478 57.205078 6.5488281 C 56.424701 11.745966 55.041016 22.739424 55.041016 35.712891 C 55.041016 43.014242 55.485126 49.648172 56.009766 55.041016 C 58.605929 54.938729 61.253142 54.865234 64 54.865234 C 66.876801 54.865234 69.642257 54.947015 72.353516 55.058594 C 72.673592 49.262225 72.958984 42.333802 72.958984 35.712891 C 72.958984 24.516416 72.153573 12.325263 71.726562 6.6289062 C 69.258497 6.380362 66.698838 6.2265625 64 6.2265625 z M 36.3125 11.984375 C 30.637959 14.667632 25.932951 18.104521 22.033203 21.896484 C 21.294476 25.963393 20.744141 30.667027 20.744141 35.712891 C 20.744141 45.122381 22.642342 53.328915 24.142578 58.378906 C 27.729442 57.833325 31.608702 57.2573 36.041016 56.707031 C 35.507881 51.174326 34.888672 43.322099 34.888672 35.712891 C 34.888672 26.733506 35.755425 17.257712 36.3125 11.984375 z M 91.689453 11.984375 C 92.246529 17.257742 93.111328 26.733577 93.111328 35.712891 C 93.111328 43.322099 92.492119 51.174326 91.958984 56.707031 C 96.391298 57.2573 100.27056 57.833325 103.85742 58.378906 C 105.35766 53.328915 107.25586 45.122381 107.25586 35.712891 C 107.25586 30.667027 106.70552 25.963393 105.9668 21.896484 C 102.06742 18.104877 97.363282 14.667522 91.689453 11.984375 z " /></svg>
